X: 17
T:Flowers of Brooklyn
D:Kevin Crawford: d` flute albu
M:C
L:1/8
K:G
BcAB G ~E3| cAAG <(3FGA dc| Bg (3ggg edcB| A ~F3 DBBA|
BcAB G ~E3| cAAG (3FGA dc| Bg (3ggg ecAF| GBAF G4 :|
| d ~g3 agfg| e ~a3 b ~a3| be (3eee dGBd| cBAG FGAd|
d ~g3 agfg| e ~a3 b ~a3| ebag fdcA| GBAF G4|
d ~g3 agfg| e ~a3 b ~a3| g (3eee dGBd| cBAG FGAd|
BcAB G ~E3| cAAG (3FGA dc| Bg (3ggg ecAF| GBAF G4|
